X: 16068
T: Green Fields Of Glentown, The
R: reel
M: 4/4
K: Adorian
eA~A2 E2DE|GB~B2 GABd|eA~A2 E2DE|GBeB dBAB|
eB~B2 eBdB|AE~E2 DGBG|AE~E2 AEDE|GEDB BA~A2:|
|:A2EA cAEA|G2DE GABD|EA~A2 GABd|edBA aged|
bg~g2 afge|dB~B2 GEDB|AE~E2 AEDE|GEDB BA~A2:|
|:A2EA cAEA|aged bage|dG~G2 DGBd|gded Bdgd|
e2Be eBdB|AE~E2 DGBG|AE~E2 AEDE|GEDB BA~A2:|

